!!!CDT:
!!!PTL: Madrigali a cinque voci. Libro quarto
!!!PPP: Venice
!!!PPR: Amadino
!!!PDT: 1600
!!!PUB-format:
!!!RISM: I 8
!!!rime: 204
!!!AGN: Madrigal
!!!SCT: Trm0204a
!!!SCA: Trm0204a
!!!original-voices: 5
!!!extant-voices: 2
!!!complete: N
!!!final: G
!!!COM: Il Verso, Antonio
!!!OTL: Giamai più dolce raggio
**kern	**text	**kern	**text
*part2	*part2	*part1	*part1
*staff2	*staff2	*staff1	*staff1
*I"Basso	*	*I"Canto	*
*I'B	*	*I'C	*
*oclefF4	*	*oclefC1	*
*clefF4	*	*clefG2	*
*k[]	*	*k[]	*
*omet(C)	*	*omet(C)	*
*M4/2	*	*M4/2	*
=1	=1	=1	=1
0r	.	0r	.
=2	=2	=2	=2
1r	.	0r	.
2r	.	.	.
2C	Gia-	.	.
=3	=3	=3	=3
2.F	-mai	2cc	Gia-
.	.	2a	-mai
4E	più	.	.
4F	dol-	4r	.
4D	-ce	4f	più
8EL	rag-	4g	dol-
8F	.	.	.
8G	.	4g	-ce
8EJ	.	.	.
=4	=4	=4	=4
8FL	.	8aL	rag-
8GJ	.	8b	.
4.A	.	8cc	.
.	.	8aJ	.
.	.	2b	.
16G#XL	.	.	.
16F#XJ	.	.	.
4G#X	.	.	.
4A	-gio	2a	-gio
4AA	Non	.	.
[2A	spie-	2cc	Non
=5	=5	=5	=5
4A]	.	4cc	spie-
4GnXi	-ga il	4b	-ga il
4FnXi	So-	4a	So-
4D	-le in	4a	-le in
2E	un	2g	un
4D	fio-	2a	fio-
[4AA	-ri-	.	.
=6	=6	=6	=6
8AA]L	.	2cc	-ri-
8BB	.	.	.
8C	.	.	.
8DJ	.	.	.
4E	.	4b	-to
4AA	-to	4.a	Mag-
4.BB	Mag-	.	.
.	.	8g	.
.	.	4.g	.
8C	.	.	.
2D	.	.	.
.	.	16f#XL	.
.	.	16eJ	.
.	.	4f#X	.
=7	=7	=7	=7
2GG	-gio,	1g	-gio,
2r	.	.	.
2r	.	1r	.
4r	.	.	.
4G	Non	.	.
=8	=8	=8	=8
4.D	spie-	4r	.
.	.	4dd	Non
8E	-ga il	.	.
4F	So-	4a	spie-
4G	-le in	4b	-ga il
4A	un	4cc	So-
4B	fio-	4dd	-le in
4c	-ri-	4ee	un
4G	-to	4b	fio-
=9	=9	=9	=9
4.A	Mag-	4.cc	-ri-
16GL	.	16bL	.
16FJ	.	16aJ	.
4E	.	4g	.
4D	-gio,	4a	-to
4r	.	2cc	Mag-
4AA	in	.	.
4BB	un	2g	-gio,
4C	fio-	.	.
=10	=10	=10	=10
4D	-ri-	4r	.
4AA	-to	4.a	Mag-
1D	Mag-	.	.
.	.	8g	.
.	.	4.g	.
.	.	16f#XL	.
.	.	16eJ	.
.	.	4f#X	.
2GG	-gio	2g	-gio
=11	=11	=11	=11
0r	.	4r	.
.	.	4dd	Di
.	.	4.ee	quel
.	.	8dd	che
.	.	4cc	le
.	.	4b	tue
.	.	8aL	ro-
.	.	8bJ	.
.	.	[4cc	.
=12	=12	=12	=12
0r	.	8cc]L	.
.	.	16b	.
.	.	16aJ	.
.	.	4cc	.
.	.	4dd	.
.	.	4a	-se e
.	.	4dd	tuoi
.	.	2cc	li-
.	.	[4b-X	-gu-
=13	=13	=13	=13
1r	.	8b-]L	.
.	.	8aJ	.
.	.	4.a	.
.	.	16g#XL	.
.	.	16f#XJ	.
.	.	4g#X	.
4r	.	1a	-stri
4.A	Fa	.	.
8A	sì	.	.
4D	chia-	.	.
=14	=14	=14	=14
4G	-ri ed	0r	.
2C	il-	.	.
8FL	-lu-	.	.
8EJ	.	.	.
8.DL	.	.	.
16E	.	.	.
8F	.	.	.
8GJ	.	.	.
4A	.	.	.
4G	-stri;	.	.
=15	=15	=15	=15
1r	.	2r	.
.	.	4r	.
.	.	4d	Né
4r	.	4.g	can-
4E	Né	.	.
.	.	8g	-gia-
4F	can-	4a	-no
4A	-gia-	4cc	gia-
=16	=16	=16	=16
4G	-no	8bL	-mai
.	.	8a	.
4G	gia-	8g	.
.	.	8fJ	.
4A	-mai	4e	.
4c	la	4ee	la
4B	sta-	2.dd	sta-
4B	-te e'l	.	.
2A	ver-	.	.
.	.	4dd	-te e'l
=17	=17	=17	=17
4G	-no,	2b	ver-
4G	la	.	.
4F	sta-	4a	-no,
4C	-te e'l	4g	e'l
2G	ver-	2g	ver-
2C	-no,	2g	-no,
=18	=18	=18	=18
1r	.	4r	.
.	.	2dd	e'l
.	.	4.cc	ver-
2r	.	.	.
.	.	16bL	.
.	.	16aJ	.
.	.	4b	.
4r	.	2cc	-no,
4C	Tal	.	.
=19	=19	=19	=19
4.F	c'hai	2r	.
8D	l'A-	.	.
4E	-pri-	4r	.
4F	-le e-	4c	Tal
2D	-ter-	4.f	c'hai
.	.	8d	l'A-
2AA	-no,	4e	-pri-
.	.	4f	-le e-
=20	=20	=20	=20
1r	.	4d	-ter-
.	.	4c	-no,
.	.	2r	.
2r	.	2r	.
2D	Tal	2dd	Tal
=21	=21	=21	=21
4.F	c'hai	4.cc	c'hai
8D	l'A-	8dd	l'A-
4E	-pri-	4cc	-pri-
4F	-le e-	2a	-le e-
2D	-ter-	.	.
.	.	4.g	-ter-
2D	-no:	.	.
.	.	16f#XL	.
.	.	16eJ	.
.	.	4f#X	.
=22	=22	=22	=22
0r	.	2g	-no:
.	.	2r	.
.	.	2r	.
.	.	4r	.
.	.	4g	Per-
=23	=23	=23	=23
0r	.	4.cc	-pe-
.	.	8b	-tua
.	.	4a	pri-
.	.	4g	-ma-
.	.	4f	-ve-
.	.	4e	-ra hai
.	.	4e	nel
.	.	4a	bel
=24	=24	=24	=24
2r	.	2g	vi-
4r	.	2a	-so
4F	E'l	.	.
4G	So-	1r	.
4D	-le è'l	.	.
4.A	dol-	.	.
8G	-ce	.	.
=25	=25	=25	=25
4F	ri-	1r	.
4D	.	.	.
8EL	.	.	.
8D	.	.	.
8E	.	.	.
8FJ	.	.	.
4.G	.	2r	.
16FL	.	.	.
16EJ	.	.	.
8DL	.	[2a	E'l
8E	.	.	.
8F	.	.	.
8GJ	.	.	.
=26	=26	=26	=26
2A	.	4a]	.
.	.	2a	So-
2E	-so,	.	.
.	.	4g#X	-le è'l
1r	.	2a	dol-
.	.	4a	-ce
.	.	[4cc	ri-
=27	=27	=27	=27
1r	.	8cc]L	.
.	.	8b	.
.	.	8b	.
.	.	16a	.
.	.	16gnXiJ	.
.	.	2a	.
2r	.	2g	-so,
2G	E'l	2g	E'l
=28	=28	=28	=28
2D	So-	2.dd	So-
4BB	-le è'l	.	.
8CL	dol-	2cc	-le è'l
8DJ	.	.	.
8EL	.	.	.
8FJ	.	.	.
2G	.	8b	do-
.	.	8g	-lce
.	.	2a	ri-
4F#X	-ce	.	.
=29	=29	=29	=29
8GL	ri-	2g	-so,
8FnXi	.	.	.
8G	.	.	.
8FJ	.	.	.
8EL	.	4r	.
8D	.	.	.
8C	.	4g	è'l
8BBJ	.	.	.
4.AA	.	2cc	dol-
8BB	.	.	.
4.C	.	4g	-ce
.	.	[4a	ri-
16BBL	.	.	.
16AAJ	.	.	.
=30	=30	=30	=30
1D	.	8a]L	.
.	.	8gJ	.
.	.	4.g	.
.	.	16f#XL	.
.	.	16eJ	.
.	.	4f#X	.
1GGl	-so.	1gl	-so.
==	==	==	==
*-	*-	*-	*-
!!!system-decoration: [*]
!!!RDF**kern: i = editorial accidental
!!!RDF**kern: l = terminal long
!!!ENC: Emiliano Ricciardi
!!!END: 2018
!!!EED: Ricciardi, Emiliano
!!!EEV: 2018/10/28
!!!YEC: Copyright 2018 Emiliano Ricciardi, All Rights Reserved
!!!ONB: Translated from MusicXML on 2018/10/28 and edited by Craig Stuart Sapp
!!@@BEGIN:	VERSEDATA
!!@SOLERTI:	204
!!@CATALOGNUM:	Trm0204
!!@LAST_MODIFIED: 2020/07/12
!!@TITLE:		Giamai più dolce raggio
!!@GENRE:		madrigale
!!@MANUSRC:	none
!!@PRINTSRC:	28, 49, 93, 141, 166, 169
!!@@BEGIN:	VERSES
!!@ABOUTIT:	Loda la bellezza de la singora Laura Peperara
!!@ABOUTEN:	He praise the beauty of lady Laura Peperara
!!@EDITOR:	Solerti, Angelo
!!@EDITION_TITLE: Le Rime di Torquato Tasso
!!@EDITION_LOC:	Bologna
!!@EDITION_PUB:	Romagnoli-Dall’Acqua
!!@EDITION_DATE:  1898-1902
!!@EDITION_VOL:	2
!!@EDITION_PAGE:  297
!!@TRANSLATOR:	Emiliano Ricciardi and Amyrose McCue Gill
!!@VERSE:
!!	Giamai più dolce raggio
!!	Non spiega il sole in un fiorito maggio
!!	Di quel che le tue rose e i tuoi ligustri
!!	Fa sì chiari ed illustri;
!!	Né caggiono giamai la state e 'l verno,
!!	Tal c'hai l'aprile eterno:
!!	Perpetua primavera hai nel bel viso
!!	E 'l sole è il dolce riso.
!!@TVERSE:
!!	Never does the sun a sweeter ray
!!	Reveal in a flowery May
!!	Than that which your roses and your privet [trees]
!!	Makes so bright and lustrous;
!!	Nor do summer and winter ever fall,
!!	Such that you have eternal April:
!!	Perpetual spring you have in your beautiful face
!!	And the sun is the sweet smile.
!!@@END:		VERSES
!!@OTHER_CRIT_ED:   None
!!@ATTRIBUTION_ABOUT:	Secure
!!		<br>
!!		This poem is attributed to Tasso in two independent prints, <i>Gioie di rime, e prose del Sig. Torquato Tasso</i> (Ferrara: Giulio Vasalini, 1587) and <i>Delle Rime, et prose del Sig. Torquato Tasso</i> ((Milan: Pietro Tini, 1586), as well as in reprints thereof (see Literary Sources).
!!@DATING:	After 1580
!!@DEDICATEE:	Peperara, Laura
!!@COMMENTARY:
!!@@END:		VERSEDATA
!!@@BEGIN:	SETTING
!!@CATALOGNUM:	Trm0204a
!!@RIMETITLE:	Giamai più dolce raggio
!!@SOLERTI:	204
!!@COMPOSER:	Il Verso, Antonio
!!@PRINCEPSTITLE:	Madrigali a cinque voci. Libro quarto
!!@PRINCEPSLOC:	Venetia
!!@NORMLOC:	Venice
!!@NORMPUB:	Amadino
!!@NORMPUBSHORT:	Amadino
!!@PRINCEPSPUB:	Amadino
!!@PRINCEPSYEAR:	1600
!!@PRINCEPSRISM:	I 8
!!@REPRINTS:	
!!@OVOICES:	5
!!@EXTANTVOICES:	2
!!@PARTBOOKS:	
!!@EXTPARTBOOKS:	
!!@OCLEFS:	C1,F4
!!@OMENSURATION:	C
!!@OKEYSIG:	-
!!@FINAL:	G
!!@TIMPEDITOR:	Ricciardi, Emiliano
!!@NOTE:		
!!@@END:		SETTING
